!!!OTL: MEI SCHAETZLE MAG MI NIMMER, GAR NIMMER MAG ER MICH
!!!ARE: Europa, Mitteleuropa, Deutschland; Vogtland
!!!SCT: Z0266
!!!YEM: Copyright 1995, estate of Helmut Schaffrath.
**kern
*ICvox
*Ivox
*M2/4
*k[b-]
*F:
{8c
=1
8f
8g
8a
8b-
=2
4cc
8cc}
{8cc
=3
8dd
8ee
8ff
8dd
=4
4cc
8r}
{8cc
=5
8dd
8ee
8ff
8dd
=6
4cc
8r}
{8cc
=7
8cc
8b-
8b-
8b-
=8
8b-
8a
8a}
{8a
=9
8b-
8a
8b-
8g
=10
4a
8r}
{8b-
=11
8cc
8b-
8b-
8b-
=12
8b-
8a
8a}
{8a
=13
8b-
8a
8b-
8g
=14
4f
8r}
==
!!!AGN: lyrisches Lied, Romanze
!!!ONB: ESAC (Essen Associative Code) Database: ZUCCAL
!!!AMT: simple duple
!!!AIN: vox
!!!EED: Helmut Schaffrath
!!!EEV: 1.0
*-
